X: 41104
T: Trip To Skye
R: waltz
M: 3/4
K: Bminor
f2 ed cB|ce AB ce|d/e/d ce dc|d2 B2 B2|
f/g/f ed cB|ce AB ce|d/e/d ce dc|BA FE FA:|
|:F/G/F Bc d2|F/G/F Bc d2|ce AB ce|dc BA FE|
F/G/F Bc d2|F/G/F Bc d2|ce AB ce|d/e/d B2 B2:|

